src/shared/_assets/icons/file-pen.svg

<svg width="19" height="20" viewBox="0 0 19 20" fill="none" xmlns="http://www.w3.org/2000/svg">
<path d="M10 20V16.925L15.525 11.425C15.675 11.275 15.8417 11.1667 16.025 11.1C16.2083 11.0333 16.3917 11 16.575 11C16.775 11 16.9667 11.0375 17.15 11.1125C17.3333 11.1875 17.5 11.3 17.65 11.45L18.575 12.375C18.7083 12.525 18.8125 12.6917 18.8875 12.875C18.9625 13.0583 19 13.2417 19 13.425C19 13.6083 18.9667 13.7958 18.9 13.9875C18.8333 14.1792 18.725 14.35 18.575 14.5L13.075 20H10ZM17.5 13.425L16.575 12.5L17.5 13.425ZM11.5 18.5H12.45L15.475 15.45L15.025 14.975L14.55 14.525L11.5 17.55V18.5ZM2 20C1.45 20 0.979167 19.8042 0.5875 19.4125C0.195833 19.0208 0 18.55 0 18V2C0 1.45 0.195833 0.979167 0.5875 0.5875C0.979167 0.195833 1.45 0 2 0H10L16 6V9H14V7H9V2H2V18H8V20H2ZM15.025 14.975L14.55 14.525L15.475 15.45L15.025 14.975Z" fill="#191F28"/>
</svg>

<svg xmlns="http://www.w3.org/2000/svg" fill="none" viewBox="0 0 19 20"><path fill="currentColor" d="M10 20v-3.075l5.525-5.5q.225-.225.5-.325a1.6 1.6 0 0 1 .55-.1 1.5 1.5 0 0 1 1.075.45l.925.925q.2.225.313.5.111.275.112.55 0 .274-.1.563a1.34 1.34 0 0 1-.325.512l-5.5 5.5zm7.5-6.575-.925-.925zm-6 5.075h.95l3.025-3.05-.45-.475-.475-.45-3.05 3.025zM2 20q-.824 0-1.412-.587A1.93 1.93 0 0 1 0 18V2Q0 1.176.588.588A1.93 1.93 0 0 1 2 0h8l6 6v3h-2V7H9V2H2v16h6v2zm13.025-5.025-.475-.45.925.925z"/></svg>
